src/assets/images/messager_whatcap.svg

<svg fill="none" height="70" viewBox="0 0 71 70" width="71" xmlns="http://www.w3.org/2000/svg"><path d="m70.2305 0h-70.000031v70h70.000031z" fill="#1bd741"/><g fill="#fff"><path d="m14.2109 56.0424 2.9429-10.4574c-1.8956-3.2229-2.8935-6.8947-2.8901-10.6338 0-11.5751 9.4187-20.9922 20.9939-20.9922 3.208.0011 6.373.7374 9.2521 2.1523 2.8791 1.415 5.3955 3.471 7.3562 6.0101 1.9606 2.5391 3.3132 5.4938 3.9539 8.6371.6407 3.1434.5525 6.3918-.2579 9.4957s-2.3213 5.9809-4.4169 8.4098c-2.0955 2.429-4.7199 4.3453-7.6715 5.6019-2.9517 1.2567-6.152 1.8201-9.3553 1.647-3.2033-.173-6.3244-1.0779-9.1234-2.6452zm11.3345-6.5946.6413.3907c3.6552 2.2285 8.0027 3.0339 12.2136 2.2626 4.2109-.7714 7.9906-3.0655 10.6186-6.4449 2.6279-3.3794 3.9202-7.6078 3.6305-11.8789s-2.1411-8.2863-5.2014-11.2799c-3.0602-2.9936-7.1151-4.7563-11.3915-4.9519-4.2765-.1957-8.4754 1.1894-11.7962 3.891-3.3208 2.7017-5.5312 6.531-6.2097 10.7578-.6785 4.2269.2223 8.5556 2.5307 12.1608l.432.6743-1.6948 6.0209z"/><path d="m29.3602 25.18-1.3618-.0759c-.428-.0239-.8484.1198-1.1722.4007-.6594.5737-1.7162 1.6832-2.041 3.1324-.4831 2.1548.2638 4.7926 2.1993 7.4305 1.9355 2.6378 5.5394 6.8583 11.9131 8.6603 2.0542.5803 3.6699.1896 4.9179-.6083.4887-.3161.9098-.726 1.2389-1.2059.3292-.48.5598-1.0205.6785-1.5903l.216-1.0155c.0339-.1568.0133-.3205-.0583-.4641-.0717-.1435-.1901-.2584-.3357-.3256l-4.6031-2.1218c-.1454-.0669-.3093-.0824-.4647-.0441-.1554.0384-.2932.1283-.3909.2551l-1.8135 2.3427c-.0664.0865-.1585.1498-.263.1809-.1045.031-.2161.0283-.319-.0078-1.2365-.4352-5.3828-2.1712-7.658-6.5534-.0487-.0926-.0685-.1978-.0567-.3019.0117-.1041.0545-.2022.1227-.2817l1.7311-1.9915c.0864-.1.1431-.2222.1635-.3528s.0037-.2643-.0481-.3858l-1.9784-4.6426c-.0515-.1212-.1359-.2255-.2438-.301-.1078-.0755-.2347-.1192-.3662-.126z"/></g></svg>

<svg width="71" height="70" viewBox="0 0 71 70" fill="none" xmlns="http://www.w3.org/2000/svg">
<path d="M70.2305 0H0.230469V70H70.2305V0Z" fill="#1BD741"/>
<path d="M14.2109 56.0424L17.1538 45.585C15.2582 42.3621 14.2603 38.6903 14.2637 34.9512C14.2637 23.3761 23.6824 13.959 35.2576 13.959C38.4656 13.9601 41.6306 14.6964 44.5097 16.1113C47.3888 17.5263 49.9052 19.5823 51.8659 22.1214C53.8265 24.6605 55.1791 27.6152 55.8198 30.7585C56.4605 33.9019 56.3723 37.1503 55.5619 40.2542C54.7515 43.3581 53.2406 46.2351 51.145 48.664C49.0495 51.093 46.4251 53.0093 43.4735 54.2659C40.5218 55.5226 37.3215 56.086 34.1182 55.9129C30.9149 55.7399 27.7938 54.835 24.9948 53.2677L14.2109 56.0424ZM25.5454 49.4478L26.1867 49.8385C29.8419 52.067 34.1894 52.8724 38.4003 52.1011C42.6112 51.3297 46.3909 49.0356 49.0189 45.6562C51.6468 42.2768 52.9391 38.0484 52.6494 33.7773C52.3597 29.5062 50.5083 25.491 47.448 22.4974C44.3878 19.5038 40.3329 17.7411 36.0565 17.5455C31.78 17.3498 27.5811 18.7349 24.2603 21.4365C20.9395 24.1382 18.7291 27.9675 18.0506 32.1943C17.3721 36.4212 18.2729 40.7499 20.5813 44.3551L21.0133 45.0294L19.3185 51.0503L25.5454 49.4478Z" fill="white"/>
<path d="M29.3602 25.18L27.9984 25.1041C27.5704 25.0802 27.15 25.2239 26.8262 25.5048C26.1668 26.0785 25.11 27.188 24.7852 28.6372C24.3021 30.792 25.049 33.4298 26.9845 36.0677C28.92 38.7055 32.5239 42.926 38.8976 44.728C40.9518 45.3083 42.5675 44.9176 43.8155 44.1197C44.3042 43.8036 44.7253 43.3937 45.0544 42.9138C45.3836 42.4338 45.6142 41.8933 45.7329 41.3235L45.9489 40.308C45.9828 40.1512 45.9622 39.9875 45.8906 39.8439C45.8189 39.7004 45.7005 39.5855 45.5549 39.5183L40.9518 37.3965C40.8064 37.3296 40.6425 37.3141 40.4871 37.3524C40.3317 37.3908 40.1939 37.4807 40.0962 37.6075L38.2827 39.9502C38.2163 40.0367 38.1242 40.1 38.0197 40.1311C37.9152 40.1621 37.8036 40.1594 37.7007 40.1233C36.4642 39.6881 32.3179 37.9521 30.0427 33.5699C29.994 33.4773 29.9742 33.3721 29.986 33.268C29.9977 33.1639 30.0405 33.0658 30.1087 32.9863L31.8398 30.9948C31.9262 30.8948 31.9829 30.7726 32.0033 30.642C32.0237 30.5114 32.007 30.3777 31.9552 30.2562L29.9768 25.6136C29.9253 25.4924 29.8409 25.3881 29.733 25.3126C29.6252 25.2371 29.4983 25.1934 29.3668 25.1866L29.3602 25.18Z" fill="white"/>
</svg>
